X:758
T:North of the Tay
R:Reel
C:James Stewart-Robertson
B:The Athole Collection
M:C|
L:1/8
K:E Minor
B|GE E/E/E E2 B,E|GBAG FDDF|1 GE E/E/E E2 B,B| dBAF E/E/E E:|2
GEBE GABb|gedF E/E/E E||
e|gfeb gebe|feda fdad|gfeb gebe|dBAF E/E/E ~Ee|gfeb gebe|fdad bdad|
gfe^d egfe|dBAF E/E/E ~E||

